src/assets/icons/shapes,fancy,filled-star5.svg

<svg width="48" height="48" viewBox="0 0 48 48" fill="none" xmlns="http://www.w3.org/2000/svg">
<path d="M22.2441 5.21957C23.0189 3.79891 23.4063 3.08858 24 3.08858C24.5937 3.08858 24.9811 3.79891 25.7559 5.21957L30.399 13.7334C30.6225 14.1431 30.7342 14.3479 30.9164 14.4803C31.0987 14.6128 31.3281 14.6557 31.7867 14.7416L41.3187 16.5266C42.9092 16.8245 43.7045 16.9734 43.8879 17.538C44.0714 18.1026 43.5155 18.6906 42.4038 19.8664L35.7415 26.9133C35.4209 27.2524 35.2607 27.4219 35.191 27.6362C35.1214 27.8505 35.1514 28.0818 35.2115 28.5446L36.4594 38.1616C36.6676 39.7664 36.7717 40.5687 36.2914 40.9177C35.8111 41.2667 35.0802 40.9197 33.6183 40.2257L24.8577 36.0671C24.4361 35.867 24.2253 35.7669 24 35.7669C23.7747 35.7669 23.5639 35.867 23.1423 36.0671L14.3817 40.2257C12.9198 40.9197 12.1889 41.2667 11.7086 40.9177C11.2283 40.5687 11.3324 39.7664 11.5406 38.1616L12.7885 28.5446C12.8486 28.0818 12.8786 27.8505 12.809 27.6362C12.7393 27.4219 12.579 27.2524 12.2585 26.9133L5.59616 19.8664C4.48446 18.6906 3.9286 18.1026 4.11206 17.538C4.29552 16.9734 5.09079 16.8245 6.68134 16.5266L16.2133 14.7416C16.6719 14.6557 16.9013 14.6128 17.0836 14.4803C17.2658 14.3479 17.3775 14.1431 17.601 13.7334L22.2441 5.21957Z" fill="black"/>
</svg>

<svg xmlns="http://www.w3.org/2000/svg" width="48" height="48" fill="none" viewBox="0 0 48 48">
  <path fill="#000" d="M22.244 5.22C23.02 3.799 23.406 3.089 24 3.089c.594 0 .981.71 1.756 2.13l4.643 8.514c.223.41.335.615.517.747.183.133.412.176.87.262l9.533 1.785c1.59.297 2.386.446 2.569 1.011.183.565-.372 1.153-1.484 2.328l-6.663 7.047c-.32.34-.48.509-.55.723-.07.215-.04.446.02.909l1.248 9.617c.209 1.604.313 2.407-.168 2.756-.48.349-1.21.002-2.673-.692l-8.76-4.159c-.422-.2-.633-.3-.858-.3-.225 0-.436.1-.858.3l-8.76 4.159c-1.462.694-2.193 1.04-2.673.692-.48-.35-.377-1.152-.168-2.756l1.248-9.617c.06-.463.09-.695.02-.909-.07-.214-.23-.384-.55-.723l-6.663-7.047c-1.112-1.175-1.667-1.763-1.484-2.328.184-.565.979-.713 2.57-1.011l9.531-1.785c.459-.086.688-.13.87-.262.183-.132.295-.337.518-.747l4.643-8.513z"/>
</svg>
